6. High pass/src/images/svg/calendar.svg

<svg height="14" viewBox="0 0 14 14" width="14" xmlns="http://www.w3.org/2000/svg"><path d="m11.6666 1.74992h-.5833v-1.166668h-1.16667v1.166668h-5.83334v-1.166668h-1.16666v1.166668h-.58334c-.64166 0-1.16666.525-1.16666 1.16667v9.33331c0 .6417.525 1.1667 1.16666 1.1667h9.33331c.6417 0 1.1667-.525 1.1667-1.1667v-9.33331c0-.64167-.525-1.16667-1.1667-1.16667zm0 10.49998h-9.33331v-7.58332h9.33331z"/></svg>

<svg width="14" height="14" viewBox="0 0 14 14" xmlns="http://www.w3.org/2000/svg">
<path d="M11.6666 1.74992H11.0833V0.583252H9.91663V1.74992H4.08329V0.583252H2.91663V1.74992H2.33329C1.69163 1.74992 1.16663 2.27492 1.16663 2.91659V12.2499C1.16663 12.8916 1.69163 13.4166 2.33329 13.4166H11.6666C12.3083 13.4166 12.8333 12.8916 12.8333 12.2499V2.91659C12.8333 2.27492 12.3083 1.74992 11.6666 1.74992ZM11.6666 12.2499H2.33329V4.66658H11.6666V12.2499Z"/>
</svg>
